ОкеанВКонцеДороги/svg/decorative-lines.svg

<svg width="307" height="71" viewBox="0 0 307 71" fill="none" xmlns="http://www.w3.org/2000/svg">
<path d="M305.812 43.9882C272.07 44.1892 265.949 58.3555 236.099 69.9176M305.857 42.3574C269.881 41.8291 263.543 57.4974 231.429 69.9176M305.887 41.2849C268.748 40.1354 263.551 56.7114 227.685 69.9176M305.92 40.0847C267.643 38.6083 261.294 56.431 226.687 69.9176M305.958 38.7378C267.383 37.2802 257.053 56.0852 222.295 69.9176M306.003 37.1163C266.152 34.8264 255.466 54.9028 216.222 69.9176M306.036 35.9315C265.331 34.0471 248.507 55.2868 213.481 69.9176M306.066 34.8384C265.955 32.5138 249.375 53.8246 206.541 69.9176M306.083 34.2278C263.258 31.8386 241.939 54.4097 203.727 69.9176M296.147 32.7621C260.512 33.1973 240.657 52.721 196.525 69.9176M296.147 32.7621C299.338 32.7712 302.652 32.9193 306.111 33.2193M296.147 32.7621C299.333 32.7231 302.646 32.8368 306.114 33.1185M296.147 32.7621C263.231 32.6676 243.365 47.3496 211.296 62.4005M211.296 62.4005C206.27 64.9846 200.922 67.5222 195.107 69.9176M211.296 62.4005C205.931 64.9184 200.225 67.4465 194.058 69.9176M211.296 62.4005C243.482 45.8505 262.433 27.3921 306.141 32.1497M306.156 31.583C252.177 25.1564 234.004 51.7632 191.807 69.9176M306.177 30.837C248.327 24.0347 226.217 53.1864 190.903 69.9176M306.198 30.0784C247.082 23.4532 220.607 53.4995 188.113 69.9176M2.39227 26.2471C18.2916 11.8172 39.3822 4.60678 62.1133 0.480188M1.61329 28.4987C19.764 10.538 44.8801 3.8163 72.1133 0.291897M0.987029 30.7471C21.9836 8.40169 52.546 3.99567 88.1133 0.410581M0.706794 32.2471C24.6532 6.40828 62.108 5.51864 106.613 0.469883M0.3294 34.5378C3.70962 30.8863 7.4304 27.7668 11.489 25.0739M11.489 25.0739C35.5254 9.12594 71.4112 8.14217 118.584 0.247073M11.489 25.0739C7.37843 27.9318 3.58375 31.2222 0.113281 35.0428M11.489 25.0739C34.7497 8.9018 68.126 6.57557 110.113 0.356218M0.155718 36.7471C27.5322 7.5699 78.1383 10.4759 132.113 0.490622M0.137503 38.2471C27.068 7.53416 75.0419 14.8482 138.113 0.311325M0.113284 40.4376C30.9423 4.80792 87.702 16.9812 148.613 0.309654M0.397988 43.2471C31.4589 4.18774 78.8065 22.0965 150.113 0.276666M0.87509 45.7471C35.1534 3.7339 84.0063 25.9073 155.514 0.247143M1.33422 48.2471C36.1047 5.37958 74.5816 27.5089 143.185 5.38837M143.185 5.38837C145.057 4.78485 146.951 4.14839 148.868 3.47677M143.185 5.38837C71.4069 29.2592 37.9884 6.65763 2.04125 49.7471M143.185 5.38837C147.83 3.84356 152.636 2.10412 157.613 0.139648M2.43202 50.9478C42.8172 4.26234 79.7486 34.0821 159.865 0.24717M3.10466 52.7471C46.0163 5.63921 79.3106 37.3688 161.739 0.247048" stroke="url(#paint0_linear_301_47)" stroke-width="0.3"/>
<path d="M305.812 43.9882C272.07 44.1892 265.949 58.3555 236.099 69.9176M305.857 42.3574C269.881 41.8291 263.543 57.4974 231.429 69.9176M305.887 41.2849C268.748 40.1354 263.551 56.7114 227.685 69.9176M305.92 40.0847C267.643 38.6083 261.294 56.431 226.687 69.9176M305.958 38.7378C267.383 37.2802 257.053 56.0852 222.295 69.9176M306.003 37.1163C266.152 34.8264 255.466 54.9028 216.222 69.9176M306.036 35.9315C265.331 34.0471 248.507 55.2868 213.481 69.9176M306.066 34.8384C265.955 32.5138 249.375 53.8246 206.541 69.9176M306.083 34.2278C263.258 31.8386 241.939 54.4097 203.727 69.9176M296.147 32.7621C260.512 33.1973 240.657 52.721 196.525 69.9176M296.147 32.7621C299.338 32.7712 302.652 32.9193 306.111 33.2193M296.147 32.7621C299.333 32.7231 302.646 32.8368 306.114 33.1185M296.147 32.7621C263.231 32.6676 243.365 47.3496 211.296 62.4005M211.296 62.4005C206.27 64.9846 200.922 67.5222 195.107 69.9176M211.296 62.4005C205.931 64.9184 200.225 67.4465 194.058 69.9176M211.296 62.4005C243.482 45.8505 262.433 27.3921 306.141 32.1497M306.156 31.583C252.177 25.1564 234.004 51.7632 191.807 69.9176M306.177 30.837C248.327 24.0347 226.217 53.1864 190.903 69.9176M306.198 30.0784C247.082 23.4532 220.607 53.4995 188.113 69.9176M2.39227 26.2471C18.2916 11.8172 39.3822 4.60678 62.1133 0.480188M1.61329 28.4987C19.764 10.538 44.8801 3.8163 72.1133 0.291897M0.987029 30.7471C21.9836 8.40169 52.546 3.99567 88.1133 0.410581M0.706794 32.2471C24.6532 6.40828 62.108 5.51864 106.613 0.469883M0.3294 34.5378C3.70962 30.8863 7.4304 27.7668 11.489 25.0739M11.489 25.0739C35.5254 9.12594 71.4112 8.14217 118.584 0.247073M11.489 25.0739C7.37843 27.9318 3.58375 31.2222 0.113281 35.0428M11.489 25.0739C34.7497 8.9018 68.126 6.57557 110.113 0.356218M0.155718 36.7471C27.5322 7.5699 78.1383 10.4759 132.113 0.490622M0.137503 38.2471C27.068 7.53416 75.0419 14.8482 138.113 0.311325M0.113284 40.4376C30.9423 4.80792 87.702 16.9812 148.613 0.309654M0.397988 43.2471C31.4589 4.18774 78.8065 22.0965 150.113 0.276666M0.87509 45.7471C35.1534 3.7339 84.0063 25.9073 155.514 0.247143M1.33422 48.2471C36.1047 5.37958 74.5816 27.5089 143.185 5.38837M143.185 5.38837C145.057 4.78485 146.951 4.14839 148.868 3.47677M143.185 5.38837C71.4069 29.2592 37.9884 6.65763 2.04125 49.7471M143.185 5.38837C147.83 3.84356 152.636 2.10412 157.613 0.139648M2.43202 50.9478C42.8172 4.26234 79.7486 34.0821 159.865 0.24717M3.10466 52.7471C46.0163 5.63921 79.3106 37.3688 161.739 0.247048" stroke="white" stroke-opacity="0.32" stroke-width="0.3"/>
<defs>
<linearGradient id="paint0_linear_301_47" x1="163.527" y1="-16.3725" x2="-0.64658" y2="75.9517" gradientUnits="userSpaceOnUse">
<stop offset="0.225413" stop-color="#E091BE" stop-opacity="0.78"/>
<stop offset="0.521429" stop-color="#726DD8"/>
<stop offset="1" stop-color="#E0BE91" stop-opacity="0.69"/>
</linearGradient>
</defs>
</svg>

<svg xmlns="http://www.w3.org/2000/svg" width="307" height="71" fill="none" viewBox="0 0 307 71"><path stroke="url(#a)" stroke-width=".3" d="M305.812 43.988c-33.742.201-39.863 14.368-69.713 25.93m69.758-27.56c-35.976-.529-42.314 15.14-74.428 27.56m74.458-28.633c-37.139-1.15-42.336 15.426-78.202 28.633m78.235-29.833c-38.277-1.477-44.626 16.346-79.233 29.833m79.271-31.18c-38.575-1.458-48.905 17.347-83.663 31.18m83.708-32.802c-39.851-2.29-50.537 17.787-89.781 32.802m89.814-33.987c-40.705-1.884-57.529 19.356-92.555 33.987m92.585-35.08c-40.111-2.324-56.691 18.987-99.525 35.08m99.542-35.69c-42.825-2.39-64.144 20.182-102.356 35.69m92.42-37.156c-35.635.435-55.49 19.959-99.622 37.156m99.622-37.156c3.191.01 6.505.157 9.964.457m-9.964-.457c3.186-.039 6.499.075 9.967.356m-9.967-.356c-32.916-.094-52.782 14.588-84.851 29.639m0 0c-5.026 2.584-10.374 5.121-16.189 7.517m16.189-7.518a324 324 0 0 1-17.238 7.518m17.238-7.518c32.186-16.55 51.137-35.008 94.845-30.25m.015-.567c-53.979-6.427-72.152 20.18-114.349 38.335m114.37-39.081c-57.85-6.802-79.96 22.35-115.274 39.08m115.295-39.839c-59.116-6.625-85.591 23.422-118.085 39.84M2.393 26.248C18.291 11.817 39.382 4.606 62.112.48M1.613 28.5C19.764 10.538 44.88 3.816 72.113.292M.987 30.747C21.984 8.402 52.546 3.996 88.113.411M.707 32.247C24.653 6.408 62.108 5.52 106.613.47M.329 34.538c3.38-3.652 7.101-6.771 11.16-9.464m0 0C35.525 9.126 71.411 8.142 118.584.247M11.489 25.074A66.8 66.8 0 0 0 .113 35.043m11.376-9.97C34.749 8.903 68.126 6.577 110.113.357M.156 36.747C27.532 7.57 78.138 10.476 132.113.491M.138 38.247C27.068 7.534 75.042 14.848 138.113.311m-138 40.127C30.943 4.808 87.702 16.98 148.613.31M.398 43.247c31.06-39.06 78.409-21.15 149.715-42.97M.875 45.747C35.153 3.734 84.006 25.907 155.514.247m-154.18 48C36.104 5.38 74.582 27.51 143.185 5.388m0 0q2.808-.905 5.683-1.911m-5.683 1.911C71.407 29.26 37.988 6.658 2.041 49.748m141.144-44.36A280 280 0 0 0 157.613.14M2.432 50.948C42.817 4.262 79.749 34.082 159.865.248m-156.76 52.5C46.016 5.638 79.31 37.367 161.739.246"/><path stroke="#fff" stroke-opacity=".32" stroke-width=".3" d="M305.812 43.988c-33.742.201-39.863 14.368-69.713 25.93m69.758-27.56c-35.976-.529-42.314 15.14-74.428 27.56m74.458-28.633c-37.139-1.15-42.336 15.426-78.202 28.633m78.235-29.833c-38.277-1.477-44.626 16.346-79.233 29.833m79.271-31.18c-38.575-1.458-48.905 17.347-83.663 31.18m83.708-32.802c-39.851-2.29-50.537 17.787-89.781 32.802m89.814-33.987c-40.705-1.884-57.529 19.356-92.555 33.987m92.585-35.08c-40.111-2.324-56.691 18.987-99.525 35.08m99.542-35.69c-42.825-2.39-64.144 20.182-102.356 35.69m92.42-37.156c-35.635.435-55.49 19.959-99.622 37.156m99.622-37.156c3.191.01 6.505.157 9.964.457m-9.964-.457c3.186-.039 6.499.075 9.967.356m-9.967-.356c-32.916-.094-52.782 14.588-84.851 29.639m0 0c-5.026 2.584-10.374 5.121-16.189 7.517m16.189-7.518a324 324 0 0 1-17.238 7.518m17.238-7.518c32.186-16.55 51.137-35.008 94.845-30.25m.015-.567c-53.979-6.427-72.152 20.18-114.349 38.335m114.37-39.081c-57.85-6.802-79.96 22.35-115.274 39.08m115.295-39.839c-59.116-6.625-85.591 23.422-118.085 39.84M2.393 26.248C18.291 11.817 39.382 4.606 62.112.48M1.613 28.5C19.764 10.538 44.88 3.816 72.113.292M.987 30.747C21.984 8.402 52.546 3.996 88.113.411M.707 32.247C24.653 6.408 62.108 5.52 106.613.47M.329 34.538c3.38-3.652 7.101-6.771 11.16-9.464m0 0C35.525 9.126 71.411 8.142 118.584.247M11.489 25.074A66.8 66.8 0 0 0 .113 35.043m11.376-9.97C34.749 8.903 68.126 6.577 110.113.357M.156 36.747C27.532 7.57 78.138 10.476 132.113.491M.138 38.247C27.068 7.534 75.042 14.848 138.113.311m-138 40.127C30.943 4.808 87.702 16.98 148.613.31M.398 43.247c31.06-39.06 78.409-21.15 149.715-42.97M.875 45.747C35.153 3.734 84.006 25.907 155.514.247m-154.18 48C36.104 5.38 74.582 27.51 143.185 5.388m0 0q2.808-.905 5.683-1.911m-5.683 1.911C71.407 29.26 37.988 6.658 2.041 49.748m141.144-44.36A280 280 0 0 0 157.613.14M2.432 50.948C42.817 4.262 79.749 34.082 159.865.248m-156.76 52.5C46.016 5.638 79.31 37.367 161.739.246"/><defs><linearGradient id="a" x1="163.527" x2="-.647" y1="-16.372" y2="75.952" gradientUnits="userSpaceOnUse"><stop offset=".225" stop-color="#e091be" stop-opacity=".78"/><stop offset=".521" stop-color="#726dd8"/><stop offset="1" stop-color="#e0be91" stop-opacity=".69"/></linearGradient></defs></svg>
